!!!!SEGMENT: pl-gd--ee-2628--006-001_stabile-annibale--il-terzo-libro-de-madrigali-a-cinque-voci-escon-dal-chiaro-viso.krn
!!!cenid: 15xx:1068
!!!COM: Stabile, Annibale
!!!COM-rismID: pe30009662
!!!CDT: ~1535-1595/04
!!!CNT: Italian
!!!GTL: Il terzo libro de madrigali a cinque voci
!!!OTL: Escon dal chiaro viso
!!!OMV: 001
!!!PDT: 1585
!!!AGN:
!!!YEC: Copyright 2022 Narodowy Instytut Fryderyka Chopina (https://polishscores.org)
!!!YEM: License CC-BY-4.0 (https://creativecommons.org/licenses/by/4.0)
!!!SMS-siglum: PL-GD
!!!SMS-shelfmark: Ee 2628
!!!SMS-variant:
!!!SMS-altvar:
!!!SMS-shelfwork: 006-001 G
!!!NIFC-rismSourceID: 1001203361
!!!NIFC-rismChildID: 990060530
!!!NIFC-islandoraID: pl-gd:66139
!!!URL-pdf-islandora: https://repozytorium.nifc.pl/islandora/object/pl-gd%3A66139/datastream/PDF/view
!!!URL-scan: https://polish.musicsources.pl/pl/lokalizacje/galeria/klocki-introligatorskie/673 @EN{Scan on Polish Music Sources Website} @PL{Skany w portalu Dziedzictwo Muzyki Polskiej w otwartym dostępie}
!!!IIIF:
!!!ONB-nifc: UWAGA: Canto: s. 90-101, Tenore: s. 246-257, Basso: s. 402-413, Quinto: s. 724-735. Dla głosu Alto proszę skorzystać z https://pbc.gda.pl/dlibra/publication/87582/edition/79411/content, str. 25-48. Uwaga: utwory podzielone wg spisu treści dostępnych na końcu ksiąg – proszę sprawdzać sąsiednie tytuły. Głos Quinto proszę umieszczać wg ambitusu (może się różnić w zależności od utworu).
!!!AIN: 1 alto 1 bass 1 soprn 1 tenor 1 vox
!!!key: C
**kern	**text	**kern	**text	**kern	**text	**kern	**text	**kern	**text
*part5	*	*part4	*	*part3	*	*part2	*	*part1	*
*staff5	*	*staff4	*	*staff3	*	*staff2	*	*staff1	*
*I"BASSO	*	*I"TENORE	*	*I"ALTO	*	*I"QVINTO	*	*I"CANTO	*
*I'B	*	*I'T	*	*I'A	*	*I'V	*	*I'S	*
*ICvox	*	*ICvox	*	*ICvox	*	*ICvox	*	*ICvox	*
*Ibass	*	*Itenor	*	*Ialto	*	*Ivox	*	*Isoprn	*
*clefC4	*	*clefC3	*	*clefC2	*	*clefC2	*	*clefG2	*
*k[]	*	*k[]	*	*k[]	*	*k[]	*	*k[]	*
*C:	*	*C:	*	*C:	*	*C:	*	*C:	*
*M2/1	*	*M2/1	*	*M2/1	*	*M2/1	*	*M2/1	*
*met(C)	*	*met(C)	*	*met(C)	*	*met(C)	*	*met(C)	*
=1-	=1-	=1-	=1-	=1-	=1-	=1-	=1-	=1-	=1-
2r	.	1G	ES-	00r	.	00r	.	00r	.
2.G/	ES-	.	.	.	.	.	.	.	.
.	.	2d\	-con	.	.	.	.	.	.
4G/	-con	.	.	.	.	.	.	.	.
2E/	dal	2c/	dal	.	.	.	.	.	.
=2-	=2-	=2-	=2-	=2-	=2-	=2-	=2-	=2-	=2-
2F/	chia-	2d\	chia-	.	.	.	.	.	.
2G/	-ro	2d\	-ro	.	.	.	.	.	.
2C/	vi-	2.e\	vi-	.	.	.	.	.	.
2c\	-ſo e	.	.	.	.	.	.	.	.
.	.	4c/	-ſo e	.	.	.	.	.	.
=3-	=3-	=3-	=3-	=3-	=3-	=3-	=3-	=3-	=3-
2B\	da	2d\	da	1r	.	00r	.	00r	.
4G/	l'al-	4e\	l'al-	.	.	.	.	.	.
4A/	-te-	2f\	-te-	.	.	.	.	.	.
*custos:B	*	*	*	*	*	*	*	*	*
!LO:LB:g=original	!	!	!	!	!	!	!	!	!
4B\	-re	.	.	2r	.	.	.	.	.
4.c\	Lu-	4e\	-re	.	.	.	.	.	.
.	.	2d\	Lu-	2.g\	ES-	.	.	.	.
8B\	.	.	.	.	.	.	.	.	.
4B\	.	.	.	.	.	.	.	.	.
*	*	*custos:e	*	*	*	*	*	*	*
!	!	!LO:LB:g=original	!	!	!	!	!	!	!
=4-	=4-	=4-	=4-	=4-	=4-	=4-	=4-	=4-	=4-
4c\	-ci	4e\	-ci	.	.	.	.	.	.
4G/	del-	4d\	del-	4g\	-con	.	.	.	.
4A/	-la	4c/	-la	2e/	dal	.	.	.	.
4E/	mia	4B/	mia	.	.	.	.	.	.
2A/	Don-	2c/	Don-	2f\	cia-	.	.	.	.
2G/	-na	2d\	-na ar-	2g\	-ro	.	.	.	.
=5-	=5-	=5-	=5-	=5-	=5-	=5-	=5-	=5-	=5-
00r	.	2e\	-ma-	2c/	vi-	2r	.	1g	ES-
.	.	2c/	-ti	2cc\	-ſo e	2.g\	Es-	.	.
.	.	2G/	lam-	2b\	da	.	.	2dd\	-con
.	.	.	.	.	.	4g\	-con	.	.
.	.	2c/	-pi	2g\	l'al-	2e/	dal	2cc\	dal
=6-	=6-	=6-	=6-	=6-	=6-	=6-	=6-	=6-	=6-
.	.	00r	.	2a\	-te-	2f\	chia-	2dd\	chia-
.	.	.	.	2b\	-re	2g\	-ro	2dd\	-ro
*	*	*	*	*custos:cc	*	*	*	*	*
!	!	!	!	!LO:LB:g=original	!	!	!	!	!
.	.	.	.	4.cc\	Lu-	2c/	vi-	2.ee\	vi-
.	.	.	.	8b\	.	.	.	.	.
.	.	.	.	8a\	.	2cc\	-ſo	.	.
.	.	.	.	8g\	.	.	.	.	.
.	.	.	.	4a\	.	.	.	4cc\	-ſe e
=7-	=7-	=7-	=7-	=7-	=7-	=7-	=7-	=7-	=7-
1r	.	.	.	4.g\	-ci	2b\	da	2dd\	da
.	.	.	.	8f\	.	.	.	.	.
.	.	.	.	4e/	.	4g\	l'al-	4ee\	l'al-
.	.	.	.	4d/	del-	4a\	-te-	2ff\	-te-
*	*	*	*	*	*	*custos:b	*	*	*
!	!	!	!	!	!	!LO:LB:g=original	!	!	!
2r	.	.	.	4d/	-la	4b\	-re	.	.
.	.	.	.	4c/	mia	2cc\	Lu-	4ee\	-re
*	*	*	*	*	*	*	*	*custos:dd	*
!	!	!	!	!	!	!	!	!LO:LB:g=original	!
2G/	ar-	.	.	2g\	Don-	.	.	2dd\	Lu-
.	.	.	.	.	.	4b\	-ci	.	.
*custos:A	*	*	*	*	*	*	*	*	*
!LO:LB:g=original	!	!	!	!	!	!	!	!	!
=8-	=8-	=8-	=8-	=8-	=8-	=8-	=8-	=8-	=8-
4A/	-ma-	1r	.	4c/	-na	4a\	del-	4cc\	-ci
4c\	-ti	.	.	4e/	del-	2g\	-la	4cc\	del-
2G/	lam-	.	.	4e/	-la	.	.	4cc\	-la
.	.	.	.	4d/	mia	4g\	mia	4b/	mia
*	*	*	*	*custos:c	*	*	*	*	*
!	!	!	!	!LO:LB:g=original	!	!	!	!	!
1C	-pi	2r	.	8c/	Don-	2g\	Don-	2.ee\	Don-
.	.	.	.	8d/	.	.	.	.	.
.	.	.	.	8e\	.	.	.	.	.
.	.	.	.	8f\	.	.	.	.	.
.	.	2c/	ar-	4g\	.	4e/	-na ar-	.	.
.	.	.	.	4e/	-na ar-	2cc\	-ma-	4gg\	-na ar-
=9-	=9-	=9-	=9-	=9-	=9-	=9-	=9-	=9-	=9-
1r	.	4A/	-ma-	4a\	-ma-	.	.	4ff\	-ma-
.	.	4c/	-ti	4g\	-ti	4cc\	-ti	4ee\	-ti
*	*	*custos:G	*	*	*	*	*	*	*
!	!	!LO:LB:g=original	!	!	!	!	!	!	!
.	.	2G/	lam-	2g\	lam-	2b\	lam-	2dd\	lam-
1C	Si	2c/	-pi	2g\	-pi	2cc\	-pi	2ee\	-pi
.	.	2c/	Si	2e/	Si	2g\	Si	2ee\	Si
*	*	*	*	*	*	*custos:a	*	*custos:cc	*
!	!	!	!	!	!	!LO:LB:g=original	!	!LO:LB:g=original	!
=10-	=10-	=10-	=10-	=10-	=10-	=10-	=10-	=10-	=10-
2F/	che	2A/	che	2.f\	che	2.a\	che	2.cc\	che
2A/	pen-	2A/	pen-	.	.	.	.	.	.
.	.	.	.	4e/	pen-	4a\	pen-	4cc\	pen-
4G/	-ſier	4B/	-ſier	4g\	-ſier	4d/	-ſier	4dd\	-ſier
4F/	ge-	4A/	ge-	2a\	ge-	4d/	ge-	4dd\	ge-
2E/	-la-	2.e\	-la-	.	.	4c/	-la-	2ee\	-la-
.	.	.	.	4g#X\	-la-	4B/	-ti	.	.
=11-	=11-	=11-	=11-	=11-	=11-	=11-	=11-	=11-	=11-
4A/	-ti e	.	.	4a\	-ti e	4.A/	e	2cc\	-ti e
2F/	vo-	2A/	-ti e	2a\	vo-	.	.	.	.
.	.	.	.	.	.	8B/	vo-	.	.
.	.	.	.	.	.	4c/	.	4ff\	vo-
4c\	-glie	4e\	vo-	4gny\	-glie	4c/	glie	4ee\	-glie
2B-X\	fe-	4g\	-glie	2b-X\	fe-	2d/	fe-	2dd\	fe-
.	.	4.f\	fe-	.	.	.	.	.	.
2c\	-re	.	.	4g\	-re	2e/	-re	2cc\	-re
.	.	8e\	.	.	.	.	.	.	.
.	.	8e\	.	4g\	Non	.	.	.	.
.	.	16d\	.	.	.	.	.	.	.
.	.	16c\	.	.	.	.	.	.	.
*	*	*	*	*custos:f	*	*	*	*	*
!	!	!	!	!LO:LB:g=original	!	!	!	!	!
=12-	=12-	=12-	=12-	=12-	=12-	=12-	=12-	=12-	=12-
1r	.	2d\	.	8f\	han	4r	.	4r	.
.	.	.	.	8g\	.	.	.	.	.
.	.	.	.	8a\	.	4f\	Non	4ff\	Non
.	.	.	.	8bny\	.	.	.	.	.
.	.	2c\	-re	4cc\	.	4g\	han	2ee\	han
.	.	.	.	4.cc\	for-	4a\	for-	.	.
2r	.	4r	.	.	.	4f\	-zo e	2dd\	for-
.	.	.	.	8cc\	-za e	.	.	.	.
.	.	2g\	Non	4b\	va-	4g\	va-	.	.
2c\	Non	.	.	2cc\	-lor	4e/	-lor	4cc\	-Zo e
*	*	*	*	*	*	*	*ij	*	*
.	.	4e\	han	.	.	4c/	Non	4ee\	va-
*custos:C	*	*custos:g	*	*	*	*custos:e	*	*	*
!LO:LB:g=original	!	!LO:LB:g=original	!	!	!	!LO:LB:g=original	!	!	!
=13-	=13-	=13-	=13-	=13-	=13-	=13-	=13-	=13-	=13-
4C/	han	2g\	for-	2r	.	4e/	han	2ee\	-lor
4.c\	for-	.	.	.	.	4.g\	for-	.	.
.	.	4c/	-za e	2cc\	per	.	.	2r	.
8c\	-za e	.	.	.	.	8g\	-za e	.	.
4A/	va-	4c/	va-	.	.	4f\	va-	.	.
2G/	-lor	4d\	-lor	8b\	c'huom	2g\	-lor	4r	.
.	.	.	.	8a\	.	.	.	.	.
.	.	4G/	per	8g\	.	.	.	2gg\	per
.	.	.	.	8f\	.	.	.	.	.
2C/	per	4G/	c'hu-	8e\	.	4r	.	.	.
.	.	.	.	8f\	.	.	.	.	.
*	*	*	*	*	*	*	*Xij	*	*
.	.	4G/	-om ne	8g\	.	4cc\	per	4ee\	c'huom
.	.	.	.	8e\	.	.	.	.	.
*	*	*	*	*	*	*	*	*custos:cc	*
!	!	!	!	!	!	!	!	!LO:LB:g=original	!
=14-	=14-	=14-	=14-	=14-	=14-	=14-	=14-	=14-	=14-
4F/	c'hu-	2A/	ſcam-	4f\	.	4a\	c'huom	4cc\	ne
4D/	-om ne	.	.	4a\	ne	4f\	ne	4.dd\	ſcam-
2A/	ſcam-	2A/	-pi	2a\	ſcam-	2e/	ſcam-	.	.
.	.	.	.	.	.	.	.	8cc#X\	.
.	.	.	.	.	.	.	.	4cc#\	.
1D	-pi	2r	.	2f#X\	-pi	2d/	-pi	2dd\	-pi
.	.	2.d\	Queſ-	2.a\	Queſ-	2.f#X\	Ques-	2.dd\	Queſ-
=15-	=15-	=15-	=15-	=15-	=15-	=15-	=15-	=15-	=15-
00r	.	.	.	.	.	.	.	.	.
.	.	4d\	-te	4a\	-te	4f#yX\	-te	4dd\	-te
*	*	*	*	*custos:b-	*	*	*	*	*
!	!	!	!	!LO:LB:g=original	!	!	!	!	!
.	.	2G/	fian	2b-X\	fian	2g\	fian	2dd\	fian
.	.	4A/	per	4a\	per	4e/	per	4ccny\	per
.	.	4F/	in-	4a\	in-	4fny\	in-	4cc\	in-
.	.	2.c/	-nanZi	2.g\	-nan-	2.e/	-nan Zi-	2.cc\	-nanZi-
=16-	=16-	=16-	=16-	=16-	=16-	=16-	=16-	=16-	=16-
.	.	4d\	a-	4f#X\	-Zi a-	2d/	a-	4a/	-a-
.	.	4G/	-mor	4g\	-mor	.	.	2b/	-mor
.	.	4g\	le	4g\	le	4G/	-mor	.	.
*	*	*custos:f#	*	*	*	*custos:g	*	*	*
!	!	!LO:LB:g=original	!	!	!	!LO:LB:g=original	!	!	!
.	.	4f#X\	ve-	4a\	ve-	2r	.	2r	.
.	.	4g\	-re	4bny\	-re	.	.	.	.
.	.	2e\	Fiam-	4.cc#X\	Fiam-	4r	.	4r	.
.	.	.	.	.	.	4g\	le	4gg\	le
.	.	.	.	16b\	.	.	.	.	.
.	.	.	.	16cc#\	.	.	.	.	.
=17-	=17-	=17-	=17-	=17-	=17-	=17-	=17-	=17-	=17-
0r	.	4d\	-me	2dd\	.	4a\	ve-	4ff#X\	ve-
.	.	4G/	pun-	.	.	4b\	-re	4gg\	-re
.	.	8c\	-gen-	2g\	-me	2.cc\	Fiam-	2ee\	Fiam-
.	.	8d\	.	.	.	.	.	.	.
.	.	8e\	.	.	.	.	.	.	.
.	.	8fny\	.	.	.	.	.	.	.
*	*	*	*	*	*	*	*	*custos:dd	*
!	!	!	!	!	!	!	!	!LO:LB:g=original	!
.	.	4.g\	.	4r	.	.	.	4dd\	-me
.	.	.	.	2G/	pun-	4b\	-me	4g/	pun-
.	.	8f\	.	.	.	.	.	.	.
.	.	2e\	.	.	.	2g\	pun-	4.b\	-gen-
.	.	.	.	2g\	-gen-	.	.	.	.
.	.	.	.	.	.	.	.	8cc\	.
=18-	=18-	=18-	=18-	=18-	=18-	=18-	=18-	=18-	=18-
1r	.	1d	-ti	.	.	2b-X\	-gen-	1dd	.
.	.	.	.	8fny\	.	.	.	.	.
.	.	.	.	8e\	.	.	.	.	.
.	.	.	.	2f#X\	.	2a\	-ti	.	.
2G/	On-	4r	.	1g	-ti	1r	.	2b/	-ti
.	.	4G/	On-	.	.	.	.	.	.
4G/	-de	4B/	-de	.	.	.	.	2r	.
4A/	fe-	4c/	fe-	.	.	.	.	.	.
*	*	*	*	*custos:g	*	*	*	*	*
!	!	!	!	!LO:LB:g=original	!	!	!	!	!
=19-	=19-	=19-	=19-	=19-	=19-	=19-	=19-	=19-	=19-
4Bny\	-ri-	4d\	-ri-	0r	.	2r	.	2r	.
4G/	-to a-	4B/	-to a-	.	.	.	.	.	.
2c\	-uam-	2e\	-uam-	.	.	2g\	On-	4r	.
.	.	.	.	.	.	.	.	4g/	On-
1G	-pi	1d	-pi	.	.	4g\	-de	4b/	-de
.	.	.	.	.	.	4a\	fe-	4cc\	fe-
.	.	.	.	.	.	4bny\	-ri-	4dd\	-ri-
.	.	.	.	.	.	4g\	-to a-	4b/	-to a-
*custos:C	*ij	*custos:c	*	*	*	*	*	*	*
!LO:LB:g=original	!	!LO:LB:g=original	!	!	!	!	!	!	!
=20-	=20-	=20-	=20-	=20-	=20-	=20-	=20-	=20-	=20-
4r	.	2c/	On-	2g\	On-	2cc\	-uam-	2ee\	-uam-
4C/	On-	.	.	.	.	.	.	.	.
4G/	-de	2d\	-de	4g\	-de	4b\	-pi	2dd\	-pi
4F#X/	fe-	.	.	4a\	fe	2a\	Me-	.	.
4G/	-ri-	4d\	fe-	4.b\	ri-	.	.	0r	.
4E/	-to a-	2e\	-ri-	.	.	2g\	-co o-	.	.
.	.	.	.	8g\	-to au-	.	.	.	.
2A/	-uam-	.	.	2.ccny\	-am-	.	.	.	.
.	.	4c/	-to a-	.	.	4f#X\	-gni	.	.
*	*	*	*	*	*	*custos:g	*	*	*
!	!	!	!	!	!	!LO:LB:g=original	!	!	!
=21-	=21-	=21-	=21-	=21-	=21-	=21-	=21-	=21-	=21-
2G/	-pi	4e\	-uam-	.	.	2g\	cor	.	.
.	.	4d\	-pi	4b\	-pi	.	.	.	.
1r	.	2c/	Me-	4a\	Me-	2e/	Me-	.	.
.	.	.	.	2g\	-co o-	.	.	.	.
.	.	4B/	-co o-	.	.	4d/	-co o-	2r	.
.	.	4A/	-gni	4fny\	-gni	4c/	-gni	.	.
*	*Xij	*	*	*	*	*	*	*	*
2G/	e	2G/	cor	4g\	cor	4d/	cor	2dd\	e
.	.	.	.	4b\	e	4g\	e	.	.
=22-	=22-	=22-	=22-	=22-	=22-	=22-	=22-	=22-	=22-
2.c\	queſ-	0r	.	2cc\	queſ-	2.g\	queſ-	2.ee\	queſ-
.	.	.	.	2g\	-te	.	.	.	.
4e\	-te	.	.	.	.	4c/	-te	4gg\	-te
*	*	*	*	*	*	*	*	*custos:ff	*
!	!	!	!	!	!	!	!	!LO:LB:g=original	!
2d\	fian	.	.	4a\	fian	4fny\	fian	4ffny\	fian
.	.	.	.	4b\	l'ac-	4d/	l'ac-	4ff\	l'ac-
4A/	l'ac-	.	.	4cc\	-ce-	2e/	-ce-	2ee\	-ce-
4.c\	-ce-	.	.	2g\	-ſe	.	.	.	.
=23-	=23-	=23-	=23-	=23-	=23-	=23-	=23-	=23-	=23-
.	.	1r	.	.	.	4e/	-ſe	4cc\	-se
8c\	-ſe	.	.	.	.	.	.	.	.
4Fny/	Qua-	.	.	4a\	Qua-	4f\	Qua-	4cc\	Qua-
*	*	*	*	*custos:g	*	*	*	*	*
!	!	!	!	!LO:LB:g=original	!	!	!	!	!
2c\	-drel-	.	.	2g\	-drel-	2e/	-drel-	2cc\	-drel-
1G	-la	2r	.	2g\	-la	2d/	-la	2b/	-la
.	.	2g\	e	2b\	e	4r	.	2dd\	e
.	.	.	.	.	.	4g\	e	.	.
*custos:G	*	*	*	*	*	*	*	*	*
!LO:LB:g=original	!	!	!	!	!	!	!	!	!
=24-	=24-	=24-	=24-	=24-	=24-	=24-	=24-	=24-	=24-
00r	.	2e\	queſ-	2g\	queſ-	4.b\	que-	8ee\	que-
.	.	.	.	.	.	.	.	8ff\	.
.	.	.	.	.	.	.	.	8gg\	.
.	.	.	.	.	.	8cc\	.	8ee\	.
.	.	4d\	-te	4a\	-te	4dd\	.	4ff\	.
.	.	2c/	fian	2cc\	fian	4g\	-ſte	4ee\	-ſte
*	*	*	*	*	*	*custos:g	*	*	*
!	!	!	!	!	!	!LO:LB:g=original	!	!	!
.	.	.	.	.	.	2g\	fian	4ee\	fian
.	.	4B/	l'ac-	4dd\	l'ac-	.	.	4dd\	l'ac-
.	.	8c\	-ce-	4.g\	-ce-	4e/	l'ac-	2ee\	-ce-
.	.	8d\	.	.	.	.	.	.	.
.	.	8e\	.	.	.	2g\	-ce-	.	.
.	.	8f\	.	8a\	.	.	.	.	.
*	*	*custos:g	*	*	*	*	*	*	*
!	!	!LO:LB:g=original	!	!	!	!	!	!	!
=25-	=25-	=25-	=25-	=25-	=25-	=25-	=25-	=25-	=25-
.	.	4g\	.	4b\	.	.	.	1dd	-ſe
.	.	2d\	-ſe	8a\	.	8f\	.	.	.
.	.	.	.	8g\	.	8e\	.	.	.
.	.	.	.	4a\	.	4f\	.	.	.
.	.	4f\	Qua-	4d/	-ſe	2a\	-ſe	.	.
.	.	2e\	-drel-	2g\	Qua-	.	.	2cc#X\	Qua-
.	.	.	.	.	.	4g\	Qua-	.	.
.	.	2d\	-la	2a\	-drel-	2f#X\	-drel-	2dd\	-drel-
*	*	*	*	*	*	*	*	*custos:dd	*
!	!	!	!	!	!	!	!	!LO:LB:g=original	!
=26-	=26-	=26-	=26-	=26-	=26-	=26-	=26-	=26-	=26-
2r	.	2r	.	2b\	-la	1g	-la	2dd\	-la
2G/	a	2d\	a	2b\	a	.	.	4r	.
.	.	.	.	.	.	.	.	4gg\	a l'al-
4.c\	l'a-	4.e\	l'al-	4.cc\	l'al-	0r	.	4.gg\	-te
8c\	-lie	8e\	-te	8cc\	-te	.	.	8gg\	tue
*	*	*	*	*custos:cc	*	*	*	*	*
!	!	!	!	!LO:LB:g=original	!	!	!	!	!
4c\	tue	4e\	tue	4cc\	tue	.	.	4gg\	piu
4d\	piu	4d\	ar-	4a\	piu	.	.	4ff\	ar-
=27-	=27-	=27-	=27-	=27-	=27-	=27-	=27-	=27-	=27-
4c\	ar-	4e\	-dit-	4a\	ar-	.	.	4ee\	-di-
4A\	-dite im-	4c/	-te im-	4a\	-di-	.	.	2ff\	-te im-
2B-X\	-pre-	8d\	-pre-	4.f\	-te im-	.	.	.	.
.	.	8e\	.	.	.	.	.	.	.
.	.	8f\	.	.	.	.	.	4.dd\	-pre-
.	.	8d\	.	8g\	-pre-	.	.	.	.
2A/	-ſe	2e\	.	1a	.	4r	.	.	.
.	.	.	.	.	.	.	.	8cc#X\	.
.	.	.	.	.	.	4e/	a	4cc#\	.
4r	.	2d\	-ſe	.	.	4.f#X\	l'al-	2dd\	-ſe
4D/	a	.	.	.	.	.	.	.	.
.	.	.	.	.	.	8f#\	-te	.	.
*	*	*custos:G	*	*	*	*	*	*	*
!	!	!LO:LB:g=original	!	!	!	!	!	!	!
=28-	=28-	=28-	=28-	=28-	=28-	=28-	=28-	=28-	=28-
2G/	l'al-	4r	.	2b#X\	-ſe	4g\	tue	4r	.
.	.	2G/	a l'a-	.	.	4d/	piu	4dd\	a
2E/	-te	.	.	4r	.	8g\	ar-	8ee\	l'al-
.	.	.	.	.	.	8fny\	-di-	8ff\	.
.	.	2e\	-lte	4g\	piu	8e\	.	8gg\	.
.	.	.	.	.	.	8d/	.	8ff\	.
*	*	*	*	*	*	*custos:c	*	*custos:ee	*
!	!	!	!	!	!	!LO:LB:g=original	!	!LO:LB:g=original	!
2A/	tue	.	.	4a\	ar-	4c/	.	8ee\	.
.	.	.	.	.	.	.	.	8dd\	.
.	.	4e\	tue	4a\	-di-	4A/	-te im-	2ccny\	.
2F/	piu	4A/	piu	8a\	-te im-	2.a\	-pre-	.	.
.	.	.	.	8g\	-pre-	.	.	.	.
.	.	4c/	ar-	8f\	.	.	.	4a/	-te
.	.	.	.	8e\	.	.	.	.	.
=29-	=29-	=29-	=29-	=29-	=29-	=29-	=29-	=29-	=29-
2G/	ardi-	2B/	-di-	2d/	.	.	.	4b/	tue
.	.	.	.	.	.	4g\	.	4b/	piu ar-
2E/	-te im-	2G/	-te im-	2e/	-se	2.g\	.	4b/	-dit-
.	.	.	.	.	.	.	.	4cc#X\	-te im-
1D	-pre-	1A	-pre-	4r	.	.	.	1dd	-pre-
.	.	.	.	4A/	im-	8f#X\	.	.	.
.	.	.	.	.	.	8e\	.	.	.
.	.	.	.	2d/	-pre-	2f#X\	.	.	.
=30-	=30-	=30-	=30-	=30-	=30-	=30-	=30-	=30-	=30-
00G	-ſe.	00G	-ſe.	00d	-ſe.	00g	-ſe.	00b	-ſe.
==	==	==	==	==	==	==	==	==	==
*-	*-	*-	*-	*-	*-	*-	*-	*-	*-
!!!system-decoration: [(s1,s2,s3,s4,s5)]
!!!ENC: Berenika Jozajtis
!!!END: 2022-07-09
!!!ENC: Jan Barakat
!!!END: 2022-08-01
